X:096
T: Et[t]rick Banks
N: O'Farrell's Pocket Companion v.2 (Sky ed. p.55)
M: C
N: "Scotch"
L: 1/8
R: reel
Q: 360
K: G
(3GAB|G2 FG E2 Bd|edBd e3g|d2cB g2 B2|cBAG AcBA|
G2 FG E2 Bd|edBd e3f|g3f efge|d2 Bc B2 :|
(3def|g3a g2 G2|Bcde d2 cB|gfga g2 fe|fgab a2 ga|
b2 ag g2 G2|B2 d2 b2 a2|g2 f2 efge|d2 Bc B2 :|
